img/product/key.svg

<svg width="26" height="27" viewBox="0 0 26 27" fill="none" xmlns="http://www.w3.org/2000/svg">
<path fill-rule="evenodd" clip-rule="evenodd" d="M19.9166 11.7798H19.2776H17.1834H9.79812L7.70459 11.7799H7.05928C6.5421 11.7799 6.12207 12.1971 6.12207 12.7106V22.5134C6.12207 23.0268 6.5421 23.4439 7.05928 23.4439H19.9166C20.435 23.4439 20.8554 23.027 20.8554 22.5134V12.7104C20.8552 12.1971 20.435 11.7798 19.9166 11.7798ZM12.1234 20.5075H14.8532L14.294 17.1109C14.6596 16.8572 14.9024 16.4375 14.9024 15.9609C14.9024 15.1859 14.2688 14.558 13.4884 14.558C12.7059 14.558 12.0744 15.1858 12.0744 15.9609C12.0744 16.4375 12.3144 16.8572 12.6801 17.1109L12.1234 20.5075Z" fill="#25394E"/>
<path fill-rule="evenodd" clip-rule="evenodd" d="M18.9408 7.32113L17.5933 4.98721C16.0052 2.25047 12.4771 1.32249 9.71433 2.91759C6.95017 4.51348 5.98979 8.03286 7.56611 10.7764L8.91833 13.1078L10.7313 12.0609L9.37962 9.72919C8.37729 7.97949 8.99071 5.73517 10.7535 4.71744C12.515 3.70042 14.7656 4.29139 15.7784 6.03486L17.1272 8.36821L18.9408 7.32113Z" fill="#25394E"/>
</svg>

<svg width="26" height="27" fill="none" xmlns="http://www.w3.org/2000/svg"><path fill-rule="evenodd" clip-rule="evenodd" d="M19.917 11.78H7.059a.935.935 0 00-.937.93v9.803c0 .514.42.93.937.93h12.858a.935.935 0 00.938-.93V12.71c0-.513-.42-.93-.938-.93zm-7.794 8.728h2.73l-.559-3.397a1.4 1.4 0 00.608-1.15c0-.775-.633-1.403-1.414-1.403-.782 0-1.414.628-1.414 1.403 0 .476.24.896.606 1.15l-.557 3.396z" fill="#25394E"/><path fill-rule="evenodd" clip-rule="evenodd" d="M18.94 7.321l-1.347-2.334c-1.588-2.737-5.116-3.665-7.879-2.07-2.764 1.596-3.724 5.116-2.148 7.86l1.352 2.33 1.813-1.046L9.38 9.729c-1.003-1.75-.39-3.994 1.373-5.012 1.762-1.017 4.013-.426 5.025 1.318l1.35 2.333 1.813-1.047z" fill="#25394E"/></svg>
